svg/solid/bxs-barcode.svg

<svg xmlns="http://www.w3.org/2000/svg" width="24" height="24"><path fill="none" d="M11 7h1v10h-1zm6 0h2v10h-2zm-4 0h3v10h-3zM9 7h1v10H9zM5 7h3v10H5z"/><path d="M20 4H4a2 2 0 0 0-2 2v12a2 2 0 0 0 2 2h16a2 2 0 0 0 2-2V6a2 2 0 0 0-2-2zM8 17H5V7h3v10zm2 0H9V7h1v10zm2 0h-1V7h1v10zm4 0h-3V7h3v10zm3 0h-2V7h2v10z"/></svg>

<svg xmlns="http://www.w3.org/2000/svg" width="24" height="24" viewBox="0 0 24 24"><path fill="none" d="M11 7H12V17H11zM17 7H19V17H17zM13 7H16V17H13zM9 7H10V17H9zM5 7H8V17H5z"/><path d="M20,4H4C2.896,4,2,4.896,2,6v12c0,1.104,0.896,2,2,2h16c1.104,0,2-0.896,2-2V6C22,4.896,21.104,4,20,4z M8,17H5V7h3V17z M10,17H9V7h1V17z M12,17h-1V7h1V17z M16,17h-3V7h3V17z M19,17h-2V7h2V17z"/></svg>
